Newaita-dark/actions/16/draw-donut.svg

<svg height="16" viewBox="0 0 16 16" width="16" xmlns="http://www.w3.org/2000/svg"><g fill="#e0e0e0"><path d="m7.9375 2.109375c-3.296875 0-5.953125 2.65625-5.953125 5.953125 0 3.300781 2.65625 5.953125 5.953125 5.953125 3.300781 0 5.953125-2.652344 5.953125-5.953125 0-3.296875-2.652344-5.953125-5.953125-5.953125zm0 1.324219c2.566406 0 4.632812 2.0625 4.632812 4.628906s-2.066406 4.632812-4.632812 4.632812-4.628906-2.066406-4.628906-4.632812 2.0625-4.628906 4.628906-4.628906zm0 0"/><path d="m7.9375 6.078125c-1.097656 0-1.984375.886719-1.984375 1.984375 0 1.101562.886719 1.984375 1.984375 1.984375 1.101562 0 1.984375-.882813 1.984375-1.984375 0-1.097656-.882813-1.984375-1.984375-1.984375zm0 .660156c.734375 0 1.324219.59375 1.324219 1.324219 0 .734375-.589844 1.324219-1.324219 1.324219-.730469 0-1.324219-.589844-1.324219-1.324219 0-.730469.59375-1.324219 1.324219-1.324219zm0 0"/></g></svg>

<svg xmlns="http://www.w3.org/2000/svg" xmlns:xlink="http://www.w3.org/1999/xlink" width="16px" height="16px" viewBox="0 0 16 16" version="1.1">
<g id="surface1">
     <defs>
  <style id="current-color-scheme" type="text/css">
   .ColorScheme-Text { color:#eeeeee; } .ColorScheme-Highlight { color:#424242; }
  </style>
 </defs>
<path style="fill:currentColor" class="ColorScheme-Text" d="M 7.9375 2.109375 C 4.640625 2.109375 1.984375 4.765625 1.984375 8.0625 C 1.984375 11.363281 4.640625 14.015625 7.9375 14.015625 C 11.238281 14.015625 13.890625 11.363281 13.890625 8.0625 C 13.890625 4.765625 11.238281 2.109375 7.9375 2.109375 Z M 7.9375 3.433594 C 10.503906 3.433594 12.570312 5.496094 12.570312 8.0625 C 12.570312 10.628906 10.503906 12.695312 7.9375 12.695312 C 5.371094 12.695312 3.308594 10.628906 3.308594 8.0625 C 3.308594 5.496094 5.371094 3.433594 7.9375 3.433594 Z M 7.9375 3.433594 "/>
     <defs>
  <style id="current-color-scheme" type="text/css">
   .ColorScheme-Text { color:#eeeeee; } .ColorScheme-Highlight { color:#424242; }
  </style>
 </defs>
<path style="fill:currentColor" class="ColorScheme-Text" d="M 7.9375 6.078125 C 6.839844 6.078125 5.953125 6.964844 5.953125 8.0625 C 5.953125 9.164062 6.839844 10.046875 7.9375 10.046875 C 9.039062 10.046875 9.921875 9.164062 9.921875 8.0625 C 9.921875 6.964844 9.039062 6.078125 7.9375 6.078125 Z M 7.9375 6.738281 C 8.671875 6.738281 9.261719 7.332031 9.261719 8.0625 C 9.261719 8.796875 8.671875 9.386719 7.9375 9.386719 C 7.207031 9.386719 6.613281 8.796875 6.613281 8.0625 C 6.613281 7.332031 7.207031 6.738281 7.9375 6.738281 Z M 7.9375 6.738281 "/>
</g>
</svg>
